images/ICONOS/DETALLES/TICKS2.svg

<svg width="34" height="122" viewBox="0 0 34 122" fill="none" xmlns="http://www.w3.org/2000/svg">
<path d="M-1.48292e-07 105.312C-1.07454e-07 104.378 0.361004 103.444 1.08301 102.735C2.52703 101.318 4.87355 101.318 6.33397 102.735L17 113.205L27.666 102.735C29.11 101.318 31.4566 101.318 32.917 102.735C34.361 104.153 34.361 106.456 32.917 107.89L19.6255 120.937C18.1815 122.354 15.8349 122.354 14.3745 120.937L1.08301 107.89C0.361003 107.181 -1.89129e-07 106.247 -1.48292e-07 105.312Z" fill="url(#paint0_linear_81_3)"/>
<path d="M7.40976e-07 84.9683C7.81813e-07 84.0341 0.361004 83.0998 1.08301 82.3911C2.52703 80.9736 4.87355 80.9736 6.33397 82.3911L17 92.8611L27.666 82.3911C29.11 80.9736 31.4566 80.9736 32.917 82.3911C34.361 83.8086 34.361 86.112 32.917 87.5455L19.6255 100.593C18.1815 102.01 15.8349 102.01 14.3745 100.593L1.08301 87.5455C0.361004 86.8368 7.00138e-07 85.9026 7.40976e-07 84.9683Z" fill="url(#paint1_linear_81_3)"/>
<path d="M1.62954e-06 64.6403C1.67038e-06 63.7061 0.361005 62.7718 1.08301 62.0631C2.52703 60.6456 4.87355 60.6456 6.33398 62.0631L17 72.5331L27.666 62.0631C29.11 60.6456 31.4566 60.6456 32.917 62.0631C34.361 63.4806 34.361 65.784 32.917 67.2176L19.6255 80.2648C18.1815 81.6823 15.8349 81.6823 14.3745 80.2648L1.08301 67.2176C0.361005 66.5088 1.5887e-06 65.5746 1.62954e-06 64.6403Z" fill="url(#paint2_linear_81_3)"/>
<path d="M2.5181e-06 44.3124C2.55894e-06 43.3781 0.361006 42.4439 1.08301 41.7351C2.52703 40.3177 4.87355 40.3177 6.33398 41.7351L17 52.2052L27.666 41.7351C29.11 40.3177 31.4566 40.3177 32.917 41.7351C34.361 43.1526 34.361 45.456 32.917 46.8896L19.6255 59.9369C18.1815 61.3544 15.8349 61.3544 14.3745 59.9369L1.08301 46.8896C0.361006 46.1809 2.47727e-06 45.2466 2.5181e-06 44.3124Z" fill="url(#paint3_linear_81_3)"/>
<path d="M3.40737e-06 23.9683C3.44821e-06 23.0341 0.361007 22.0998 1.08301 21.3911C2.52703 19.9736 4.87355 19.9736 6.33398 21.3911L17 31.8611L27.666 21.3911C29.11 19.9736 31.4566 19.9736 32.917 21.3911C34.361 22.8086 34.361 25.112 32.917 26.5455L19.6255 39.5928C18.1815 41.0103 15.8349 41.0103 14.3745 39.5928L1.08301 26.5455C0.361007 25.8368 3.36653e-06 24.9026 3.40737e-06 23.9683Z" fill="url(#paint4_linear_81_3)"/>
<path d="M4.29593e-06 3.64035C4.33677e-06 2.7061 0.361008 1.77185 1.08302 1.06311C2.52703 -0.354372 4.87355 -0.354372 6.33398 1.06311L17 11.5331L27.666 1.06311C29.11 -0.35437 31.4566 -0.35437 32.917 1.06311C34.361 2.48059 34.361 4.784 32.917 6.21759L19.6255 19.2649C18.1815 20.6823 15.8349 20.6823 14.3745 19.2649L1.08302 6.21758C0.361008 5.50884 4.2551e-06 4.5746 4.29593e-06 3.64035Z" fill="url(#paint5_linear_81_3)"/>
<defs>
<linearGradient id="paint0_linear_81_3" x1="-0.000774401" y1="-1.48622e-06" x2="-0.000777689" y2="122" gradientUnits="userSpaceOnUse">
<stop stop-color="#1723FF"/>
<stop offset="1" stop-color="#30E35E"/>
</linearGradient>
<linearGradient id="paint1_linear_81_3" x1="-0.000774401" y1="-1.48622e-06" x2="-0.000777689" y2="122" gradientUnits="userSpaceOnUse">
<stop stop-color="#1723FF"/>
<stop offset="1" stop-color="#30E35E"/>
</linearGradient>
<linearGradient id="paint2_linear_81_3" x1="-0.000774401" y1="-1.48622e-06" x2="-0.000777689" y2="122" gradientUnits="userSpaceOnUse">
<stop stop-color="#1723FF"/>
<stop offset="1" stop-color="#30E35E"/>
</linearGradient>
<linearGradient id="paint3_linear_81_3" x1="-0.000774401" y1="-1.48622e-06" x2="-0.000777689" y2="122" gradientUnits="userSpaceOnUse">
<stop stop-color="#1723FF"/>
<stop offset="1" stop-color="#30E35E"/>
</linearGradient>
<linearGradient id="paint4_linear_81_3" x1="-0.000774401" y1="-1.48622e-06" x2="-0.000777689" y2="122" gradientUnits="userSpaceOnUse">
<stop stop-color="#1723FF"/>
<stop offset="1" stop-color="#30E35E"/>
</linearGradient>
<linearGradient id="paint5_linear_81_3" x1="-0.000774401" y1="-1.48622e-06" x2="-0.000777689" y2="122" gradientUnits="userSpaceOnUse">
<stop stop-color="#1723FF"/>
<stop offset="1" stop-color="#30E35E"/>
</linearGradient>
</defs>
</svg>

<svg width="34" height="122" fill="none" xmlns="http://www.w3.org/2000/svg"><path d="M0 105.312a3.6 3.6 0 0 1 1.083-2.577c1.444-1.417 3.79-1.417 5.251 0L17 113.205l10.666-10.47c1.444-1.417 3.79-1.417 5.251 0a3.609 3.609 0 0 1 0 5.155l-13.292 13.047c-1.444 1.417-3.79 1.417-5.25 0L1.082 107.89A3.6 3.6 0 0 1 0 105.312Z" fill="url(#a)"/><path d="M0 84.968a3.6 3.6 0 0 1 1.083-2.577c1.444-1.417 3.79-1.417 5.251 0L17 92.861l10.666-10.47c1.444-1.417 3.79-1.417 5.251 0a3.608 3.608 0 0 1 0 5.154l-13.292 13.048c-1.444 1.417-3.79 1.417-5.25 0L1.082 87.546A3.6 3.6 0 0 1 0 84.968Z" fill="url(#b)"/><path d="M0 64.64a3.6 3.6 0 0 1 1.083-2.577c1.444-1.417 3.79-1.417 5.251 0L17 72.533l10.666-10.47c1.444-1.417 3.79-1.417 5.251 0a3.608 3.608 0 0 1 0 5.155L19.625 80.265c-1.444 1.417-3.79 1.417-5.25 0L1.082 67.218A3.6 3.6 0 0 1 0 64.64Z" fill="url(#c)"/><path d="M0 44.312a3.6 3.6 0 0 1 1.083-2.577c1.444-1.417 3.79-1.417 5.251 0L17 52.205l10.666-10.47c1.444-1.417 3.79-1.417 5.251 0a3.608 3.608 0 0 1 0 5.155L19.625 59.937c-1.444 1.417-3.79 1.417-5.25 0L1.082 46.89A3.6 3.6 0 0 1 0 44.312Z" fill="url(#d)"/><path d="M0 23.968a3.6 3.6 0 0 1 1.083-2.577c1.444-1.417 3.79-1.417 5.251 0L17 31.861l10.666-10.47c1.444-1.417 3.79-1.417 5.251 0a3.608 3.608 0 0 1 0 5.155L19.625 39.593c-1.444 1.417-3.79 1.417-5.25 0L1.082 26.545A3.6 3.6 0 0 1 0 23.968Z" fill="url(#e)"/><path d="M0 3.64a3.6 3.6 0 0 1 1.083-2.577c1.444-1.417 3.79-1.417 5.251 0L17 11.533l10.666-10.47c1.444-1.417 3.79-1.417 5.251 0a3.608 3.608 0 0 1 0 5.155L19.625 19.265c-1.444 1.417-3.79 1.417-5.25 0L1.082 6.218A3.6 3.6 0 0 1 0 3.64Z" fill="url(#f)"/><defs><linearGradient id="a" x1="-.001" y1="0" x2="-.001" y2="122" gradientUnits="userSpaceOnUse"><stop stop-color="#1723FF"/><stop offset="1" stop-color="#30E35E"/></linearGradient><linearGradient id="b" x1="-.001" y1="0" x2="-.001" y2="122" gradientUnits="userSpaceOnUse"><stop stop-color="#1723FF"/><stop offset="1" stop-color="#30E35E"/></linearGradient><linearGradient id="c" x1="-.001" y1="0" x2="-.001" y2="122" gradientUnits="userSpaceOnUse"><stop stop-color="#1723FF"/><stop offset="1" stop-color="#30E35E"/></linearGradient><linearGradient id="d" x1="-.001" y1="0" x2="-.001" y2="122" gradientUnits="userSpaceOnUse"><stop stop-color="#1723FF"/><stop offset="1" stop-color="#30E35E"/></linearGradient><linearGradient id="e" x1="-.001" y1="0" x2="-.001" y2="122" gradientUnits="userSpaceOnUse"><stop stop-color="#1723FF"/><stop offset="1" stop-color="#30E35E"/></linearGradient><linearGradient id="f" x1="-.001" y1="0" x2="-.001" y2="122" gradientUnits="userSpaceOnUse"><stop stop-color="#1723FF"/><stop offset="1" stop-color="#30E35E"/></linearGradient></defs></svg>
